X:1
T:Amanda
T:A minor                    Alexander Gillet, 1795
T:Transcribed from The New York Collection of Sacred Harmony, 1795.
T:Isaac Watts, 1719 (Psalm 90, Part 1)       88. 88. (L. M.)  
%%score [ 1 2 3 4 ]
L:1/8
Q:1/4=100
M:4/4
K:C
V:1 treble nm="Tr.\n1" snm="Tr.\n1"
V:2 treble nm="Tr.\n2" snm="Tr.\n2"
V:3 treble-8 nm="T." snm="T."
V:4 bass nm="B." snm="B."
V:1
"^Slow""_1. Death, like an o–ver–flo–wing stream,  Sweeps us away; our  life's   a  dream,        An  emp–ty  tale,  a   morning   flower,  Cut down and with–ered  in           an   hour." E4 A2 G2 | %1
 A8 | c4 B2 A2 | B8 | A4 c2 d2 | e6 B2 | c4 B4 | A8 | z4 A4 | e6 e2 | d4 f4 | (e4 d2) c2 | B8 | %13
 E4 A2 G2 | (A4 B4) | (c2 e2) (d2 c2) | B8 | A8 |] %18
V:2
"_2. Our  age  to  seven – ty  years  is  set;  How short the time! how frail the state!        And   if    to    eighty   we      ar – rive,   We  rather  sigh       and    groan    than   live." A4 E2 D2 | %1
 (E4 F4) | E4 G2 A2 | E8 | E4 A2 B2 | ^G6 =G2 | (E2 F2) E4 | E8 | z4 A4 | A6 A2 | G4 A4 | E6 A2 | %12
 ^G8 | E4 E2 F2 | (E4 G4) | A4 F4 | E8 | E8 |] %18
V:3
"_3. Teach us, O  Lord,  how frail is  man;  And kindly  lengthen  out    our   span,       Till    a   wise  care  of  pi   –   e   –   ty   Fit   us  to   die,       and     dwell    with   thee." e4 c2 B2 | %1
 A8 | A4 B2 A2 | ^G8 | c4 e2 d2 | B6 B2 | A4 ^G4 | A8 | z4 e4 | c6 c2 | B4 d4 | B6 c2 | e8 | %13
 B4 A2 B2 | (c4 B4) | c4 A4 | ^G8 | A8 |] %18
V:4
 E,4 A,,2 B,,2 | (C,4 D,4) | A,4 G,2 F,2 | E,8 | A,4 A,2 B,2 | E,6 G,2 | C,4 E,4 | A,,8- | %8
 A,,4 E,4 | A,6 C2 | G,4 D,4 | E,6 A,,2 | E,8 | G,4 C2 B,2 | (A,4 G,4) | C,4 D,4 | E,8 | A,,8 |] %18

